X:562
T: Tracht des Waldbauernbuben (260), S. 557f
N: T0450
O: Luxemburg
S: Singendes Volk, Esch-Alzette, 1937 posth.]
N: Diekirch, fff Elise Laschette, 14.1.1934,
N: von Zricher Buben erlernt
R: Scherz-, Spiel-, Spottlied]
M: 2/4
L: 1/8
K: C
EGcE | G2GG | G2FE | D2
F2 | D2G2 | E2z2 |
E2G2 | G2FE | D2FF | F2z2 |
D2A2 | A2GF | E2GG | G2z2 |
EGcE | G2GG | G2FE | D2
F2 | D2G2 | E2z2

@@@ Tune index: 8616
